X: 1
T: Post Road To Boston, The
M: 4/4
L: 1/8
R: reel
K: Dmaj
|:&quot;A&quot;EAAE &quot;Bm&quot;FA&quot;G&quot;Bd|&quot;D&quot;faa^g &quot;D&quot;afdf|&quot;Em&quot;gfed &quot;Bm&quot;(3Bcd ef|&quot;Em&quot;gfed &quot;Bm&quot;BAFD |
&quot;A&quot;EAAE &quot;Bm&quot;FA&quot;G&quot;Bd|&quot;D&quot;faa^g &quot;D&quot;afdf|&quot;Em&quot;gfed &quot;Bm&quot;Bcde | &quot;A7&quot;(3fga eg &quot;D&quot;fdd2:|
|:&quot;Bm&quot;BABc &quot;D&quot;defg|&quot;A&quot;aA(3AAA &quot;D&quot;afea|&quot;Bm&quot;bB(3BBB &quot;Bm&quot;bafb|&quot;D&quot;afdf &quot;A7&quot;(3efe dc|
&quot;Bm&quot;BABc &quot;D&quot;defg|&quot;A&quot;aA(3AAA &quot;D&quot;afea|&quot;Bm&quot;bB(3BBB &quot;Bm&quot;bafe| &quot;A7&quot;(3fga eg &quot;D&quot;fdd2:||
